X:1
T:Pax Veritatis, 88.88.88.88.88.
T:Horatio William Parker, 1918
T:Pax Veritatis, 88.88.88.88.88.
T:Public Domain
T:Public Domain
C:Horatio William Parker, 1918
Z:Public Domain
%%score ( 1 2 ) ( 3 4 )
L:1/8
M:4/4
K:Db
V:1 treble 
V:2 treble 
V:3 bass 
V:4 bass 
V:1
 [DA]4 [Fd]3 [Fc] | (F4 E2) [DB]2 | [B,E]2 [=DF]2 [EG]2 [FB]2 | E2 z G [DF]2 [DA]2 | %4
 C2 =D2 =E2 [=Gc]2 | [Fc]6 [Ac]2 | [Gc]2 [Fd]2 [Ee]2 [CG]2 | [EG]3 [DF] [DF]2 [FB]2 | %8
 [E=A]2 [DB]2 [Cc]2 [=A,E]2 | [CE]3 [B,D] [B,D]2 [DF]2 | B,2 z F [DE]2 (FE) | %11
 [EA]2 [EB]2 [Ec]2 [EA]2 | [B,E]3 [B,F] [DE]2 (CD) | [EA]2 [EB]2 [Ec]2 A2 | G2 B2 E2 G2 | C3 D E4 | %16
"^In unison" F2 FF [DF]2 [C-F]2 | ([CF]2 =B,2 z2) A2 x2 | [A,C]2 [B,D]2 [B,D]2 [CE]2 x2 | %19
"^In harmony" (D2 E2) [FB]3 [FA] | (G2 D2 B2) [AB]2 | (d2 f2 e2) d2 | (A2 G2 F2 E2) | %23
 [Fd]4 [Ae]2 [Af]2 | ([Gg]2 [Af]2 [Ge]2) B2 | (E2 F2) (G2 A2) | [Fd]8 |] %27
V:2
 x8 | c6 x2 | x8 | A3 C2 x3 | c6 x2 | x8 | x8 | x8 | x8 | x8 | E3 (C2 x B2) | x8 | x6 B2 | x6 A2 | %14
 G2 B2 E2 G2 | C3 D E4 | C4 x4 | x2 =G4 _B,4 | A8 x2 | [Ad]4 x4 | G6 x2 | A4 =G4 | c8 | x8 | %24
 x6 B2 | d4 c4 | x8 |] %27
V:3
 [D,F,]4 [B,,B,]3 [F,A,] | [F,A,]6 [G,B,]2 | [G,B,]2 B,2 [E,B,]2 [D,F,]2 | %3
 [C,A,]2 [A,,A,]2 [D,A,]2 [D,F,]2 | ([A,,F,]2 [B,,A,]2 =G,2) B,2 | [F,A,]6 [F,A,]2 | %6
 E,2 z A, [C,A,]2 [A,,A,]2 | [D,A,]3 [D,A,] [D,A,]2 [D,F,]2 | [C,F,]2 [B,,F,]2 [=A,,F,]2 F,2 | %9
 [B,,F,]3 [B,,F,] [B,,F,]2 (B,A,) | [D,=G,]2 [C,A,]2 [B,,G,]2 [D,G,]2 | %11
 [C,A,]2 [B,,=G,]2 [A,,A,]2 [C,A,]2 | (E,2 D,)[C,A,] [B,,_G,]2 [D,E,]2 | %13
 [C,E,]2 [E,=G,]2 [A,,A,]2 A,2 | A,2 B,2 E,2 G,2 | C,3 D, E,4 | [A,,F,]4 B,,2 C,2 | %17
 (G,2 F,2 =E,2) (_D,E,) x2 | (F,,4 z2 E,2) x2 | F,2 A,2 [D,D]3 [D,_C] | (G,2 A,2 G,2) [F,B,]2 | %21
 (B,2 C2 D2) [E,E]2 | (A,2 B,2 C2 E2) | D4 [_CD]2 [CD]2 | ([B,D]2 [B,,=D]2) (E,2 G,2) | %25
 A,4 [A,E]4 | [D,D]8 |] %27
V:4
 x8 | x8 | x2 B,2 x4 | x8 | x4 C,4 | x8 | A,3 D,2 x3 | x8 | x6 F,2 | x6 B,,2 | x8 | x8 | =G,3 x5 | %13
 x6 A,2 | A,2 B,2 E,2 G,2 | C,3 D, E,4 | x4 =G,4- | =D,4 C,4 x2 | F,6 A,,4 | D,4 x4 | B,6 x2 | %21
 E,6 x2 | A,8 | D4 x4 | x4 C4 | A,4 x4 | x8 |] %27

